src/pos-icons/code-greater-than-or-equal.svg

<svg height="24" viewBox="0 0 24 24" width="24" xmlns="http://www.w3.org/2000/svg"><path d="m13 13h5v2h-5m0-6h5v2h-5m-6.09-3.59 4.59 4.59-4.59 4.6-1.41-1.42 3.18-3.18-3.18-3.18m-.5-5.82c-1.11 0-2 .9-2 2v14a2 2 0 0 0 2 2h14a2 2 0 0 0 2-2v-14a2 2 0 0 0 -2-2z"/></svg>

<?xml version="1.0" encoding="UTF-8"?><!DOCTYPE svg PUBLIC "-//W3C//DTD SVG 1.1//EN" "http://www.w3.org/Graphics/SVG/1.1/DTD/svg11.dtd"><svg xmlns="http://www.w3.org/2000/svg" xmlns:xlink="http://www.w3.org/1999/xlink" version="1.1" id="mdi-code-greater-than-or-equal" width="24" height="24" viewBox="0 0 24 24"><path d="M13,13H18V15H13M13,9H18V11H13M6.91,7.41L11.5,12L6.91,16.6L5.5,15.18L8.68,12L5.5,8.82M5,3C3.89,3 3,3.9 3,5V19A2,2 0 0,0 5,21H19A2,2 0 0,0 21,19V5A2,2 0 0,0 19,3H5Z" /></svg>
